X: 10034
T: FROSTY'S REEL
C: Bob McQuillen 17 Ap4 93
B: Bob's Note Book 10 #34
%R: reel
Z: 2021 John Chambers <jc:trillian.mit.edu>
M: C
L: 1/8
K: G
BA \
| G2DG BGEG | DGBG AGEG | A2BG AGEG | BdBG AGED |\
| G2DG BGEG | DGBd edBd | gedg edBG | AGED G2 :|
|: GA \
| B2GB dega | bagb aged | g2dB edge | dBGB AGEG |\
| B2GB dega | b2bg aged  |gedB e2ge | dBAB G2 :|
%%begintext align
%% Bob Frost is a fine guitar-
%% player from Portsmouth, and I always enjoy the
%% several visits I have with him in the course of a year.
%% We always share a happy musicians' get-together in May, down
%% in Connecticut; anything beyond that is a plus, and I hope it
%% happens soon, Frosty!
%%endtext

%%sep 1 1 500

%%sep 1 1 500

